flaticon/emoticons/nerd-4.svg

<svg xmlns="http://www.w3.org/2000/svg" width="32" height="32" viewBox="0 0 24 24">
    <path d="M17.328125 17.035156C17.148438 16.898438 16.894531 16.9375 16.757812 17.117188 16.625 17.296875 16.660156 17.550781 16.839844 17.683594L17.414062 18.113281C16.898438 18.765625 15.25 20.625 12.984375 20.964844 11.554688 21.179688 10.117188 20.742188 8.714844 19.671875L9.191406 19.3125C9.371094 19.175781 9.410156 18.921875 9.273438 18.742188 9.140625 18.5625 8.882812 18.527344 8.707031 18.660156L7.078125 19.882812C6.898438 20.015625 6.863281 20.269531 6.996094 20.449219 7.078125 20.558594 7.199219 20.613281 7.324219 20.613281 7.40625 20.613281 7.492188 20.585938 7.566406 20.53125L8.042969 20.171875C8.058594 20.1875 8.066406 20.207031 8.082031 20.21875 9.445312 21.292969 10.847656 21.832031 12.265625 21.832031 12.542969 21.832031 12.824219 21.8125 13.105469 21.769531 15.691406 21.382812 17.5 19.328125 18.066406 18.605469L18.46875 18.90625C18.542969 18.960938 18.625 18.988281 18.710938 18.988281 18.835938 18.988281 18.957031 18.929688 19.039062 18.824219 19.171875 18.644531 19.136719 18.390625 18.957031 18.253906zM11.390625 12.476562C11.390625 12.261719 11.675781 12.070312 12 12.070312 12.324219 12.070312 12.609375 12.261719 12.609375 12.476562 12.609375 14.496094 14.253906 16.140625 16.269531 16.140625 18.289062 16.140625 19.933594 14.496094 19.933594 12.476562 19.933594 10.460938 18.289062 8.816406 16.269531 8.816406 14.609375 8.816406 13.207031 9.929688 12.761719 11.449219 12.539062 11.328125 12.28125 11.257812 12 11.257812 11.71875 11.257812 11.460938 11.328125 11.238281 11.449219 10.792969 9.929688 9.390625 8.816406 7.730469 8.816406 5.710938 8.816406 4.066406 10.460938 4.066406 12.476562 4.066406 14.496094 5.710938 16.140625 7.730469 16.140625 9.746094 16.140625 11.390625 14.496094 11.390625 12.476562zM16.269531 9.632812C17.839844 9.632812 19.117188 10.910156 19.117188 12.476562 19.117188 14.046875 17.839844 15.324219 16.269531 15.324219 14.703125 15.324219 13.421875 14.046875 13.421875 12.476562 13.421875 10.910156 14.703125 9.632812 16.269531 9.632812zM4.882812 12.476562C4.882812 10.910156 6.160156 9.632812 7.730469 9.632812 9.296875 9.632812 10.578125 10.910156 10.578125 12.476562 10.578125 14.046875 9.296875 15.324219 7.730469 15.324219 6.160156 15.324219 4.882812 14.046875 4.882812 12.476562zM4.882812 12.476562"/>
    <path d="M6.796875 12.765625L8.421875 11.140625C8.582031 10.980469 8.582031 10.722656 8.421875 10.5625 8.265625 10.40625 8.007812 10.40625 7.847656 10.5625L6.222656 12.191406C6.0625 12.351562 6.0625 12.605469 6.222656 12.765625 6.300781 12.84375 6.40625 12.886719 6.507812 12.886719 6.613281 12.886719 6.714844 12.84375 6.796875 12.765625zM8.828125 12.191406C8.671875 12.03125 8.414062 12.03125 8.253906 12.191406L6.628906 13.816406C6.46875 13.976562 6.46875 14.234375 6.628906 14.394531 6.707031 14.472656 6.8125 14.511719 6.914062 14.511719 7.019531 14.511719 7.125 14.472656 7.203125 14.394531L8.828125 12.765625C8.988281 12.605469 8.988281 12.347656 8.828125 12.191406zM15.050781 12.886719C15.15625 12.886719 15.257812 12.84375 15.339844 12.765625L16.964844 11.140625C17.125 10.980469 17.125 10.722656 16.964844 10.5625 16.804688 10.40625 16.550781 10.40625 16.390625 10.5625L14.761719 12.191406C14.605469 12.351562 14.605469 12.605469 14.761719 12.765625 14.84375 12.84375 14.945312 12.886719 15.050781 12.886719zM16.796875 12.191406L15.171875 13.816406C15.011719 13.976562 15.011719 14.234375 15.171875 14.394531 15.25 14.472656 15.351562 14.511719 15.457031 14.511719 15.5625 14.511719 15.664062 14.472656 15.746094 14.394531L17.371094 12.765625C17.53125 12.605469 17.53125 12.351562 17.371094 12.191406 17.214844 12.03125 16.957031 12.03125 16.796875 12.191406zM16.796875 12.191406"/>
    <path d="M 12 0 C 6.054688 0 1.21875 4.835938 1.21875 10.78125 L 1.21875 15.246094 C 1.21875 15.25 1.21875 15.25 1.21875 15.25 C 1.21875 15.25 1.21875 15.253906 1.21875 15.253906 L 1.21875 20.746094 C 1.21875 21.867188 2.132812 22.78125 3.253906 22.78125 L 5.917969 22.78125 C 5.9375 22.789062 5.957031 22.796875 5.976562 22.804688 C 7.402344 23.476562 9.121094 23.878906 11.078125 23.976562 C 11.121094 23.976562 11.164062 23.980469 11.210938 23.980469 C 11.46875 23.992188 11.730469 24 12 24 C 12.269531 24 12.53125 23.992188 12.792969 23.980469 C 12.835938 23.980469 12.878906 23.976562 12.921875 23.976562 C 14.878906 23.878906 16.597656 23.476562 18.023438 22.804688 C 18.042969 22.796875 18.0625 22.789062 18.082031 22.78125 L 20.746094 22.78125 C 21.867188 22.78125 22.78125 21.867188 22.78125 20.746094 L 22.78125 10.78125 C 22.78125 4.835938 17.945312 0 12 0 Z M 17.894531 21.964844 L 17.8125 22.007812 C 16.660156 22.566406 15.289062 22.929688 13.777344 23.089844 C 13.667969 23.101562 13.558594 23.113281 13.445312 23.125 C 13.285156 23.136719 13.125 23.148438 12.960938 23.15625 C 12.648438 23.175781 12.328125 23.1875 12 23.1875 C 11.671875 23.1875 11.351562 23.175781 11.039062 23.15625 C 10.875 23.148438 10.714844 23.136719 10.554688 23.121094 C 10.445312 23.113281 10.332031 23.101562 10.222656 23.089844 C 8.714844 22.929688 7.339844 22.566406 6.191406 22.007812 L 6.105469 21.964844 L 6.070312 21.964844 C 3.476562 20.65625 2.035156 18.34375 2.035156 15.253906 C 2.035156 15.253906 2.035156 15.25 2.035156 15.25 C 2.035156 15.25 2.035156 15.25 2.035156 15.246094 C 2.039062 10.019531 6.425781 5.550781 11.796875 5.289062 L 12.183594 5.289062 C 17.578125 5.550781 21.964844 10.023438 21.964844 15.253906 C 21.964844 18.34375 20.523438 20.65625 17.933594 21.964844 Z M 3.253906 21.964844 C 2.582031 21.964844 2.035156 21.417969 2.035156 20.746094 L 2.035156 19.027344 C 2.597656 20.195312 3.441406 21.1875 4.535156 21.964844 Z M 21.964844 20.746094 C 21.964844 21.417969 21.417969 21.964844 20.746094 21.964844 L 19.464844 21.964844 C 20.558594 21.1875 21.402344 20.195312 21.964844 19.027344 Z M 12.203125 4.472656 L 11.777344 4.476562 C 7.390625 4.691406 3.625 7.492188 2.035156 11.28125 L 2.035156 10.78125 C 2.035156 5.285156 6.503906 0.8125 12 0.8125 C 17.496094 0.8125 21.964844 5.285156 21.964844 10.78125 L 21.964844 11.265625 C 20.371094 7.484375 16.601562 4.6875 12.203125 4.472656 Z M 12.203125 4.472656"/>
</svg>

<svg xmlns="http://www.w3.org/2000/svg" width="32" height="32" viewBox="0 0 24 24">
    <path d="M17.328 17.035a.406.406 0 0 0-.488.649l.574.43c-.516.652-2.164 2.511-4.43 2.85-1.43.216-2.867-.222-4.27-1.292l.477-.36a.406.406 0 0 0-.484-.652l-1.629 1.223a.405.405 0 0 0 .246.73.411.411 0 0 0 .242-.082l.477-.36c.016.017.023.036.039.048 1.363 1.074 2.766 1.613 4.184 1.613.277 0 .558-.02.84-.062 2.585-.387 4.394-2.442 4.96-3.165l.403.301a.403.403 0 0 0 .57-.082.41.41 0 0 0-.082-.57zm0 0M11.39 12.477c0-.215.286-.407.61-.407s.61.192.61.407a3.668 3.668 0 0 0 3.66 3.664 3.67 3.67 0 0 0 3.664-3.664 3.668 3.668 0 0 0-3.664-3.66 3.662 3.662 0 0 0-3.508 2.632 1.585 1.585 0 0 0-.762-.191c-.281 0-.54.07-.762.191A3.662 3.662 0 0 0 7.73 8.816a3.668 3.668 0 0 0-3.664 3.66 3.67 3.67 0 0 0 3.664 3.665 3.668 3.668 0 0 0 3.66-3.664zm4.88-2.844a2.85 2.85 0 0 1 2.847 2.844 2.85 2.85 0 0 1-2.847 2.847 2.853 2.853 0 0 1-2.848-2.847 2.852 2.852 0 0 1 2.848-2.844zM4.883 12.477A2.85 2.85 0 0 1 7.73 9.633a2.852 2.852 0 0 1 2.848 2.844 2.853 2.853 0 0 1-2.848 2.847 2.85 2.85 0 0 1-2.847-2.847zm0 0"/>
    <path d="M6.797 12.766l1.625-1.625a.408.408 0 0 0-.574-.579l-1.625 1.63a.41.41 0 1 0 .285.695.419.419 0 0 0 .289-.121zm0 0M8.828 12.191a.403.403 0 0 0-.574 0l-1.625 1.625a.408.408 0 0 0 .574.579l1.625-1.63a.403.403 0 0 0 0-.574zm0 0M15.05 12.887a.419.419 0 0 0 .29-.121l1.625-1.625a.408.408 0 0 0-.574-.579l-1.63 1.63a.41.41 0 0 0 0 .574.419.419 0 0 0 .29.12zm0 0M16.797 12.191l-1.625 1.625a.408.408 0 0 0 .574.579l1.625-1.63a.403.403 0 0 0 0-.574.403.403 0 0 0-.574 0zm0 0"/>
    <path d="M12 0C6.055 0 1.219 4.836 1.219 10.781v9.965c0 1.121.914 2.035 2.035 2.035h2.664l.059.024c1.425.672 3.144 1.074 5.101 1.172.043 0 .086.003.133.003.258.012.52.02.789.02.27 0 .531-.008.793-.02l.129-.003c1.957-.098 3.676-.5 5.101-1.172l.059-.024h2.664a2.039 2.039 0 0 0 2.035-2.035v-9.965C22.781 4.836 17.945 0 12 0zm5.895 21.965l-.082.043c-1.153.558-2.524.922-4.036 1.082l-.332.035c-.16.012-.32.023-.484.031a15.386 15.386 0 0 1-2.406-.035 9.536 9.536 0 0 1-.332-.031c-1.508-.16-2.883-.524-4.032-1.082l-.086-.043H6.07c-2.593-1.309-4.035-3.621-4.035-6.711v-.004-.004c.004-5.226 4.39-9.695 9.762-9.957h.387c5.394.262 9.78 4.734 9.78 9.965 0 3.09-1.44 5.402-4.03 6.71zm-14.641 0a1.22 1.22 0 0 1-1.219-1.219v-1.719a7.663 7.663 0 0 0 2.5 2.938zm18.71-1.219a1.22 1.22 0 0 1-1.218 1.219h-1.281a7.663 7.663 0 0 0 2.5-2.938zm-9.76-16.273l-.427.004c-4.386.214-8.152 3.015-9.742 6.804v-.5C2.035 5.285 6.504.812 12 .812c5.496 0 9.965 4.473 9.965 9.97v.484c-1.594-3.782-5.363-6.579-9.762-6.793zm0 0"/>
</svg>
